symbols/web/fire_extinguisher/materialsymbolssharp/fire_extinguisher_wght200gradN25_24px.svg

<svg xmlns="http://www.w3.org/2000/svg" height="24" width="24"><path d="M9.575 20.45q-.625 0-1.037-.412-.413-.413-.413-1.038v-.475H15.9V19q0 .625-.425 1.038-.425.412-1.05.412Zm-1.45-2.875v-5.15H15.9v5.15Zm.025-6.125q.225-.9 1-1.713.775-.812 2.125-1.112V8.4q-.4-.125-.725-.413-.325-.287-.475-.587L7.25 6.675q-.075 0-.125-.075t-.05-.2q0-.15.05-.225.05-.075.125-.1l2.8-.7q.275-.55.788-.875.512-.325 1.162-.325.4 0 .762.137.363.138.663.388l1.475-.4q.375-.1.688.137.312.238.312.613v2.6q0 .4-.325.612-.325.213-.7.088l-1.3-.425q-.15.15-.362.275-.213.125-.438.225v.225q1.2.25 2.025 1.062.825.813 1.05 1.738ZM12 7.425q.425 0 .738-.312.312-.313.312-.738t-.312-.725q-.313-.3-.738-.3-.45 0-.737.3-.288.3-.288.725 0 .45.288.75.287.3.737.3Z"/></svg>

<svg xmlns="http://www.w3.org/2000/svg" height="24" width="24"><path d="M9.575 20.45Q8.95 20.45 8.538 20.038Q8.125 19.625 8.125 19V18.525H15.9V19Q15.9 19.625 15.475 20.038Q15.05 20.45 14.425 20.45ZM8.125 17.575V12.425H15.9V17.575ZM8.15 11.45Q8.375 10.55 9.15 9.737Q9.925 8.925 11.275 8.625V8.4Q10.875 8.275 10.55 7.987Q10.225 7.7 10.075 7.4L7.25 6.675Q7.175 6.675 7.125 6.6Q7.075 6.525 7.075 6.4Q7.075 6.25 7.125 6.175Q7.175 6.1 7.25 6.075L10.05 5.375Q10.325 4.825 10.838 4.5Q11.35 4.175 12 4.175Q12.4 4.175 12.762 4.312Q13.125 4.45 13.425 4.7L14.9 4.3Q15.275 4.2 15.588 4.437Q15.9 4.675 15.9 5.05V7.65Q15.9 8.05 15.575 8.262Q15.25 8.475 14.875 8.35L13.575 7.925Q13.425 8.075 13.213 8.2Q13 8.325 12.775 8.425V8.65Q13.975 8.9 14.8 9.712Q15.625 10.525 15.85 11.45ZM12 7.425Q12.425 7.425 12.738 7.113Q13.05 6.8 13.05 6.375Q13.05 5.95 12.738 5.65Q12.425 5.35 12 5.35Q11.55 5.35 11.263 5.65Q10.975 5.95 10.975 6.375Q10.975 6.825 11.263 7.125Q11.55 7.425 12 7.425Z"/></svg>
